markup/src/img/icon-04.svg

<svg width="32" height="29" viewBox="0 0 32 29" fill="none" xmlns="http://www.w3.org/2000/svg">
<path d="M28.6255 0H7.9332C6.1374 0 4.67637 1.45284 4.67637 3.23283L4.54302 21.5224H0.504808C0.218623 21.5224 0 21.7764 0 22.0637V24.5808C0 26.9371 1.87854 28.8641 4.14575 28.9698V29H21.5708V28.966C21.7004 28.9713 21.7788 29 21.8679 29H21.8803C24.2983 28.9858 26.2475 27.0074 26.2348 24.5803V8.58296H31.4952C31.7814 8.58296 32 8.32287 32 8.03586V3.41749C32.0033 1.54047 30.4954 0.0134617 28.6255 0ZM4.36893 27.9596C2.52556 27.9596 1.03644 26.4303 1.03644 24.5803V22.5628H17.4899V24.5716C17.4858 25.7425 17.9466 26.8667 18.7702 27.6957C18.8578 27.7841 18.9494 27.8296 19.043 27.9596H4.36893ZM25.1984 24.5797C25.1984 26.4303 23.7237 27.9596 21.8796 27.9596H21.8689C20.0157 27.9462 18.522 26.4321 18.5263 24.5719V22.0637C18.5278 21.7724 18.2983 21.5326 18.0081 21.5224H5.57945L5.7128 3.23639C5.7128 2.02662 6.70875 1.04036 7.9332 1.04036H26.1789C25.5883 1.69058 25.1984 2.51327 25.1984 3.43146V24.5797ZM30.9636 7.5426H26.2348V3.43044C26.2348 2.12847 27.3138 1.04036 28.6103 1.04036H28.6247C29.9246 1.05331 30.9696 2.1178 30.9636 3.42282V7.5426Z" fill="#40AC6C"/>
<path d="M12.1688 12.8038L14.8406 14.6374C15.0149 14.7581 15.2454 14.7581 15.4198 14.6374L18.0835 12.8043C19.0089 12.1706 19.6923 10.8458 19.6923 9.72238V6.01254C19.6979 5.81646 19.5901 5.6346 19.416 5.54545L15.3479 3.53686C15.2052 3.46575 15.0377 3.46575 14.895 3.53686L10.8345 5.53986C10.6604 5.62901 10.5529 5.81087 10.5587 6.00695V9.72238C10.5587 10.8458 11.2437 12.1706 12.1688 12.8038ZM11.5951 6.33156L15.1255 4.58307L18.6559 6.33638V9.72238C18.6559 10.5059 18.1442 11.5026 17.4987 11.9443L15.1194 13.5777L12.7495 11.9446C12.104 11.5024 11.5951 10.5059 11.5951 9.72238V6.33156Z" fill="#40AC6C"/>
<path d="M14.249 10.5077C14.3456 10.6068 14.4777 10.6629 14.6159 10.6637H14.6172C14.7548 10.6632 14.8866 10.6078 14.9836 10.5098L17.045 8.43971C17.2477 8.23651 17.2477 7.90683 17.0453 7.70363C16.8431 7.50018 16.5147 7.50018 16.3122 7.70338L14.6189 9.40285L13.9421 8.71681C13.7404 8.5126 13.4122 8.51108 13.2088 8.71351C13.0053 8.91595 13.004 9.24538 13.2055 9.44959L14.249 10.5077Z" fill="#40AC6C"/>
<path d="M21.5708 16.1256H9.1336C8.84742 16.1256 8.61538 16.3585 8.61538 16.6457C8.61538 16.933 8.84742 17.1659 9.1336 17.1659H21.5708C21.857 17.1659 22.0891 16.933 22.0891 16.6457C22.0891 16.3585 21.857 16.1256 21.5708 16.1256Z" fill="#40AC6C"/>
<path d="M21.5708 18.5314H9.1336C8.84742 18.5314 8.61538 18.7643 8.61538 19.0516C8.61538 19.3388 8.84742 19.5718 9.1336 19.5718H21.5708C21.857 19.5718 22.0891 19.3388 22.0891 19.0516C22.0891 18.7643 21.857 18.5314 21.5708 18.5314Z" fill="#40AC6C"/>
</svg>

<svg width="32" height="29" fill="none" xmlns="http://www.w3.org/2000/svg"><path d="M28.625 0H7.933C6.137 0 4.676 1.453 4.676 3.233l-.133 18.29H.505c-.286 0-.505.253-.505.54v2.518c0 2.356 1.879 4.283 4.146 4.389V29H21.57v-.034c.13.005.208.034.297.034h.012c2.418-.014 4.367-1.993 4.355-4.42V8.583h5.26c.286 0 .505-.26.505-.547V3.417A3.405 3.405 0 0 0 28.625 0zM4.37 27.96c-1.843 0-3.333-1.53-3.333-3.38v-2.017H17.49v2.009a4.41 4.41 0 0 0 1.28 3.124c.088.088.18.134.273.264H4.369zm20.83-3.38c0 1.85-1.475 3.38-3.32 3.38h-.01a3.373 3.373 0 0 1-3.343-3.388v-2.508a.538.538 0 0 0-.518-.542H5.58l.134-18.286c0-1.21.996-2.196 2.22-2.196H26.18c-.59.65-.98 1.473-.98 2.391V24.58zm5.765-17.037h-4.73V3.43c0-1.302 1.08-2.39 2.376-2.39h.015a2.367 2.367 0 0 1 2.339 2.383v4.12z" fill="#40AC6C"/><path d="M12.169 12.804l2.672 1.833a.507.507 0 0 0 .579 0l2.664-1.833c.925-.633 1.608-1.958 1.608-3.082v-3.71a.509.509 0 0 0-.276-.467l-4.068-2.008a.507.507 0 0 0-.453 0l-4.06 2.003a.508.508 0 0 0-.276.467v3.715c0 1.124.685 2.449 1.61 3.082zm-.574-6.472l3.53-1.749 3.53 1.753v3.386c0 .784-.51 1.78-1.156 2.222l-2.38 1.634-2.37-1.633c-.645-.443-1.154-1.44-1.154-2.223v-3.39z" fill="#40AC6C"/><path d="M14.249 10.508a.519.519 0 0 0 .367.156h.001c.138 0 .27-.056.367-.154l2.061-2.07a.522.522 0 0 0 0-.736.517.517 0 0 0-.733 0L14.62 9.402l-.677-.686a.517.517 0 0 0-.733-.003.522.522 0 0 0-.003.736l1.043 1.058zm7.321 5.618H9.135a.52.52 0 0 0 0 1.04H21.57a.52.52 0 0 0 0-1.04zm0 2.405H9.135a.52.52 0 0 0 0 1.04H21.57a.52.52 0 0 0 0-1.04z" fill="#40AC6C"/></svg>
